X:109
T:Duncan Gray. GS.109
M:4/4
L:1/8
Q:1/4=100
S:George Spencer m/s, Leeds,1831
R:.Air
O:England
A:Leeds
N:â€George Spencer Book Leeds 1831â€³ written on the stave at the end of the
N:music
H:183
Z:vmp.Cherri Graebe
K:D major
Adcd ef c2 | d2 e>g fd d2 | Adcd ef c2 | d2 eg fd d2 :|!
|:ga ag/f/ gg g2 | fg/f/ ed cBâ€^or G in msâ€ A2 |\
ab/a/ ga/g/ fg/f/ e2 | d2e>g fd d2:|

